X: 15136
T: Gighetta
R: jig
M: 6/8
K: Aminor
|:E|A2B cBA|c2B ^F2A|^G2G GAB|B2A c2B|
A2B cBA|c2B ^F2A|^G2G GAB|1 A3 A2:|2 A3A2B||
|:c2e edc|B2d dcB|A2B cBA|c2B B2E|
A2B cBA|c2B ^F2A|^G3GAB|1 A3 A2B:|2 A3A2G||
F2A AGA|cBA G2F|E2A AGA|c2B- BAG|
F2A AGA|cBA G2F|e3 efe|d2c- cBA|
F2A AGA|cBA G2F|E2A AGA|c2B- BAG|
^F3A A^GA|cBA A2c|B2B ABA|FAF F2||

